X:1043
T:BAL GAVOTTE
Z: Yves BELOTTEAU
M:4/4
L:1/8
Q:1/4=88
K:C
|ABcd egfe2|AB/2c/2d3/2c/2 AG/2A3/2A|Bcde gfe2|AB/2c/2d3/2c/2 AG/2A3/2a3
/2|
gf/2ed/2c A/2B/2c/2de/2g|f/2ea3/2g f/2ed/2cA/2B/2|c/2dc/2AG/2Aa3/2gf/2|e
d/2cA/2B/2c/2 de/2gf/2e|
a3/2gf/2e d/2cA/2B/2c/2d|c/2AG/2A|
